X:1
T:The Braes of Bushbie
T:The Braes of Bushbie
T:John Bowie, 1789
C:John Bowie, 1789
L:1/8
M:4/4
K:C
V:1 treble 
V:1
 Cec!p! (1789:2:11.uece dd .Favue egF x7/64 | D<GG>A _B>AG>F | C>DF>G A<c _B/A/G/F/ | %3
 G>A_B>c d>cB>d | c/_B/A/G/ F>A B<G G3/2 :: A/ | _B>cd>B f>Bd>B | A<cf>d c/_B/A/G/ F>A | %8
 _B>cd<B f>Bd>B | c>AF>A _B<G G3/2 :: _B/ | g2 d>g (3dga (3_bag | f2 c>f (3cfg (3agf | %13
 g>fd>g d>c_B>d | c/_B/A/G/ F>A B<G G3/2 :| A/ | _B<dG>d (3GBc (3dcB | A>cF>c (3FA_B c>A | %18
 _B<dG>d (3GBc d>B | c>AF>A _B<GG>A | (3_Bcd G>d (3GBc (3dcB | A>cF>A (3FA_B (3cBA | %22
 _B>df<_b f>dB>d | c/_B/A/G/ F>A B<G G3/2 |] %24

